images/icons/cart.svg

<svg width="25" height="25" viewBox="0 0 25 25" fill="none" xmlns="http://www.w3.org/2000/svg">
<g clip-path="url(#clip0)">
<path d="M37.6227 3.65031C37.4693 3.43558 37.2239 3.31288 36.9479 3.31288H14.8926L14.2485 0.644172C14.1564 0.245399 13.819 0 13.4203 0H9.52455C9.06442 0 8.66565 0.368098 8.66565 0.858896C8.66565 1.34969 9.06442 1.71779 9.52455 1.71779H12.7454L17.3773 20.8896C17.4693 21.2883 17.8068 21.5337 18.2055 21.5337H19.3405C18.8804 21.8712 18.543 22.4233 18.543 23.0675C18.543 24.1411 19.4018 25 20.4755 25C21.5491 25 22.408 24.1411 22.408 23.0675C22.408 22.4233 22.0706 21.9018 21.6104 21.5337H29.3712C28.911 21.8712 28.5736 22.4233 28.5736 23.0675C28.5736 24.1411 29.4325 25 30.5061 25C31.5798 25 32.4387 24.1411 32.4387 23.0675C32.4387 22.4233 32.1012 21.9018 31.6411 21.5337H32.1933C32.6534 21.5337 33.0522 21.1656 33.0522 20.6748C33.0522 20.2147 32.6534 19.816 32.1933 19.816H18.8804L18.3896 17.8221H33.8497C34.2485 17.8221 34.5859 17.546 34.6779 17.1779L37.7761 4.3865C37.8374 4.11043 37.7761 3.83436 37.6227 3.65031ZM23.4203 11.8405L23.1135 9.29448H28.0828L27.7761 11.8405H23.4203ZM27.5614 13.5583L27.2546 16.1043H23.911L23.6043 13.5583H27.5614ZM16.3344 9.29448H21.3957L21.7025 11.8405H16.9479L16.3344 9.29448ZM22.8988 7.57669L22.592 5.03067H28.5736L28.2669 7.57669H22.8988ZM20.8742 5.03067L21.181 7.57669H15.9049L15.2914 5.03067H20.8742ZM17.3466 13.5583H21.8865L22.1933 16.1043H17.9601L17.3466 13.5583ZM28.9724 16.1043L29.2791 13.5583H33.7884L33.1749 16.1043H28.9724ZM34.2178 11.8405H29.4939L29.8006 9.29448H34.8313L34.2178 11.8405ZM35.2301 7.57669H29.9847L30.2914 5.03067H35.8436L35.2301 7.57669Z" fill="#5326D4"/>
</g>
<defs>
<clipPath id="clip0">
<rect width="25" height="25" fill="white"/>
</clipPath>
</defs>
</svg>

<svg width="25" height="25" fill="none" xmlns="http://www.w3.org/2000/svg"><g clip-path="url(#clip0)"><path d="M37.623 3.65a.815.815 0 00-.675-.337H14.893L14.248.644C14.156.245 13.82 0 13.42 0H9.525a.857.857 0 00-.86.859c0 .49.4.859.86.859h3.22l4.632 19.172c.092.398.43.644.829.644h1.134c-.46.337-.797.89-.797 1.534 0 1.073.859 1.932 1.933 1.932a1.924 1.924 0 001.932-1.933c0-.644-.337-1.165-.798-1.533h7.761c-.46.337-.797.89-.797 1.534 0 1.073.858 1.932 1.932 1.932a1.925 1.925 0 001.933-1.933c0-.644-.338-1.165-.798-1.533h.552c.46 0 .86-.368.86-.86a.878.878 0 00-.86-.858H18.88l-.49-1.994h15.46a.856.856 0 00.828-.644l3.098-12.792c.061-.276 0-.552-.153-.736zM23.42 11.84l-.307-2.546h4.97l-.307 2.546H23.42zm4.141 1.718l-.306 2.546H23.91l-.307-2.546h3.957zM16.334 9.294h5.062l.306 2.546h-4.754l-.614-2.546zM22.9 7.577l-.307-2.546h5.982l-.307 2.546H22.9zM20.874 5.03l.307 2.546h-5.276L15.29 5.03h5.583zm-3.527 8.527h4.54l.306 2.546H17.96l-.613-2.546zm11.625 2.546l.307-2.546h4.51l-.614 2.546h-4.203zm5.246-4.263h-4.724l.307-2.547h5.03l-.613 2.546zm1.012-4.264h-5.245l.306-2.546h5.553l-.614 2.546z" fill="#5326D4"/></g><defs><clipPath id="clip0"><path fill="#fff" d="M0 0h25v25H0z"/></clipPath></defs></svg>
